Sources/FrostedUI/Resources/Icons.xcassets/locationPin24.imageset/location-pin-24.svg

<svg width="24" height="24" viewBox="0 0 24 24" fill="none" xmlns="http://www.w3.org/2000/svg" data-fui-icon="true">
  <path
    d="M12 1C16.6944 1 20.5 4.80558 20.5 9.5C20.5 13.0353 18.4195 16.3959 16.4561 18.7988C15.4618 20.0156 14.469 21.0206 13.7256 21.7217C13.3534 22.0726 13.0425 22.3489 12.8232 22.5381C12.7136 22.6327 12.6266 22.7059 12.5664 22.7559C12.5364 22.7808 12.5124 22.8002 12.4961 22.8135C12.4883 22.8198 12.482 22.8245 12.4775 22.8281C12.4753 22.83 12.473 22.8319 12.4717 22.833L12.4697 22.835C12.2298 23.0275 11.9008 23.0515 11.6387 22.9072L11.5303 22.835L11.5283 22.833C11.527 22.8319 11.5247 22.83 11.5225 22.8281C11.518 22.8245 11.5117 22.8198 11.5039 22.8135C11.4876 22.8002 11.4636 22.7808 11.4336 22.7559C11.3734 22.7059 11.2864 22.6327 11.1768 22.5381C10.9575 22.3489 10.6466 22.0726 10.2744 21.7217C9.53097 21.0206 8.53821 20.0156 7.54395 18.7988C5.58053 16.3959 3.5 13.0353 3.5 9.5C3.5 4.80558 7.30558 1 12 1ZM12 2.5C8.13401 2.5 5 5.63401 5 9.5C5 12.4949 6.79447 15.5101 8.70605 17.8496C9.64912 19.0037 10.5941 19.9617 11.3037 20.6309C11.5751 20.8868 11.8124 21.0987 12 21.2637C12.1876 21.0987 12.4249 20.8868 12.6963 20.6309C13.4059 19.9617 14.3509 19.0037 15.2939 17.8496C17.2055 15.5101 19 12.4949 19 9.5C19 5.63401 15.866 2.5 12 2.5ZM12 5C14.4853 5 16.5 7.01472 16.5 9.5C16.5 11.9853 14.4853 14 12 14C9.51472 14 7.5 11.9853 7.5 9.5C7.5 7.01472 9.51472 5 12 5ZM12 6.5C10.3431 6.5 9 7.84315 9 9.5C9 11.1569 10.3431 12.5 12 12.5C13.6569 12.5 15 11.1569 15 9.5C15 7.84315 13.6569 6.5 12 6.5Z"
    fill="currentColor"
  />
</svg>

<svg xmlns="http://www.w3.org/2000/svg" width="24" height="24" fill="none" data-fui-icon="true" viewBox="0 0 24 24"><path fill="currentColor" d="M12 1a8.5 8.5 0 0 1 8.5 8.5c0 3.535-2.08 6.896-4.044 9.299a31.3 31.3 0 0 1-3.633 3.74q-.165.142-.257.217l-.07.058-.019.014-.005.005-.002.002a.75.75 0 0 1-.831.072l-.109-.072-.002-.002-.005-.005-.02-.014q-.024-.02-.07-.058-.091-.075-.256-.218a31.302 31.302 0 0 1-3.633-3.74C5.58 16.397 3.5 13.036 3.5 9.5A8.5 8.5 0 0 1 12 1m0 1.5a7 7 0 0 0-7 7c0 2.995 1.794 6.01 3.706 8.35A30 30 0 0 0 12 21.264a29.82 29.82 0 0 0 3.294-3.414C17.206 15.51 19 12.495 19 9.5a7 7 0 0 0-7-7M12 5a4.5 4.5 0 1 1 0 9 4.5 4.5 0 0 1 0-9m0 1.5a3 3 0 1 0 0 6 3 3 0 0 0 0-6"/></svg>
